X:4471
L:1/8
Q:3/8=110
M:6/8
K:C
 C |[K:F]"^James Winder,February 1st,1841" c | c2 f{g} f>ef | a2 f{g} f>ef |{e} d^cd ded | 
 g>ag{g} fed | c2 f{g} f>ef | a2 f{g} f>ef |{e} d^cd e<ge | e<ff f2 :: c | cBA AGA | AGA Acf | 
 BAG GFG | GFG G2 c | f/g/af fef | g/a/bg gfg | cfa dbg | ceg f2 :|

